X: 38576
T: Stolen Purse, The
R: jig
M: 6/8
K: Gmajor
edB AGA|AGF GBd|edB ABd|e2d e2g|
edB AGA|AGF GBA|GED G2A|B2d edB||
def g2g|agf ~g3|def g2g|age edB|
def ~g3|agf g2a|bag agf|e2d efg||

